flaticon/game/puzzle.svg

<svg xmlns="http://www.w3.org/2000/svg" width="32" height="32" viewBox="0 0 24 24">
    <path d="M10.703125 11.351562L8.699219 11.351562C9.019531 10.886719 9.199219 10.332031 9.199219 9.75 9.199219 8.207031 7.945312 6.949219 6.398438 6.949219 4.855469 6.949219 3.601562 8.207031 3.601562 9.75 3.601562 10.332031 3.777344 10.886719 4.101562 11.351562L1.695312 11.351562C.761719 11.351562 0 12.113281 0 13.046875L0 16.425781C0 16.601562.117188 16.757812.285156 16.808594.453125 16.859375.636719 16.792969.734375 16.644531 1.105469 16.085938 1.726562 15.75 2.398438 15.75 3.503906 15.75 4.398438 16.648438 4.398438 17.75 4.398438 18.851562 3.503906 19.75 2.398438 19.75 1.726562 19.75 1.105469 19.414062.734375 18.855469.636719 18.707031.453125 18.640625.285156 18.695312.117188 18.746094 0 18.898438 0 19.078125L0 22.054688C0 22.988281.761719 23.75 1.695312 23.75L10.703125 23.75C11.640625 23.75 12.398438 22.988281 12.398438 22.054688L12.398438 19.535156C12.398438 19.378906 12.304688 19.234375 12.164062 19.171875 12.019531 19.105469 11.851562 19.132812 11.730469 19.238281 11.363281 19.570312 10.890625 19.75 10.398438 19.75 9.296875 19.75 8.398438 18.851562 8.398438 17.75 8.398438 16.648438 9.296875 15.75 10.398438 15.75 10.890625 15.75 11.363281 15.933594 11.730469 16.261719 11.851562 16.367188 12.019531 16.394531 12.164062 16.332031 12.308594 16.265625 12.398438 16.125 12.398438 15.964844L12.398438 13.046875C12.398438 12.113281 11.640625 11.351562 10.703125 11.351562zM11.601562 15.222656C11.226562 15.046875 10.820312 14.949219 10.398438 14.949219 8.855469 14.949219 7.601562 16.207031 7.601562 17.75 7.601562 19.292969 8.855469 20.550781 10.398438 20.550781 10.820312 20.550781 11.226562 20.457031 11.601562 20.277344L11.601562 22.054688C11.601562 22.546875 11.199219 22.949219 10.703125 22.949219L1.695312 22.949219C1.203125 22.949219.800781 22.546875.800781 22.054688L.800781 20.046875C1.261719 20.371094 1.820312 20.550781 2.398438 20.550781 3.945312 20.550781 5.199219 19.292969 5.199219 17.75 5.199219 16.207031 3.945312 14.949219 2.398438 14.949219 1.820312 14.949219 1.261719 15.128906.800781 15.453125L.800781 13.046875C.800781 12.550781 1.203125 12.152344 1.695312 12.152344L5.074219 12.152344C5.25 12.152344 5.40625 12.035156 5.457031 11.867188 5.507812 11.699219 5.441406 11.515625 5.296875 11.417969 4.734375 11.046875 4.398438 10.421875 4.398438 9.75 4.398438 8.648438 5.296875 7.75 6.398438 7.75 7.503906 7.75 8.398438 8.648438 8.398438 9.75 8.398438 10.421875 8.066406 11.042969 7.503906 11.417969 7.359375 11.515625 7.292969 11.699219 7.34375 11.867188 7.394531 12.035156 7.550781 12.152344 7.726562 12.152344L10.703125 12.152344C11.199219 12.152344 11.601562 12.550781 11.601562 13.046875zM23.820312 3.128906C23.628906 2.785156 23.316406 2.53125 22.9375 2.421875L15.75.308594C15.371094.199219 14.972656.242188 14.625.429688 14.277344.621094 14.027344.933594 13.914062 1.3125L13.480469 2.792969C13.1875 2.464844 12.804688 2.21875 12.371094 2.089844 11.101562 1.71875 9.769531 2.449219 9.394531 3.714844 9.214844 4.328125 9.285156 4.976562 9.59375 5.539062 9.898438 6.101562 10.40625 6.507812 11.019531 6.6875 11.457031 6.816406 11.910156 6.816406 12.332031 6.699219L11.804688 8.5C11.695312 8.878906 11.734375 9.277344 11.925781 9.625 12.113281 9.96875 12.425781 10.222656 12.804688 10.332031L14.285156 10.769531C13.957031 11.0625 13.714844 11.445312 13.585938 11.878906 13.214844 13.148438 13.941406 14.480469 15.207031 14.855469 15.433594 14.917969 15.660156 14.953125 15.886719 14.953125 16.28125 14.953125 16.675781 14.851562 17.03125 14.65625 17.59375 14.351562 18.003906 13.84375 18.183594 13.230469 18.308594 12.792969 18.3125 12.339844 18.191406 11.917969L19.992188 12.445312C20.371094 12.554688 20.773438 12.511719 21.117188 12.324219 21.464844 12.136719 21.714844 11.824219 21.828125 11.445312L22.621094 8.75C22.667969 8.578125 22.601562 8.398438 22.453125 8.300781 22.308594 8.203125 22.113281 8.214844 21.976562 8.328125 21.566406 8.675781 21.015625 8.792969 20.5 8.640625 19.65625 8.390625 19.171875 7.503906 19.417969 6.660156 19.539062 6.25 19.8125 5.914062 20.1875 5.707031 20.558594 5.503906 20.992188 5.457031 21.402344 5.578125 21.914062 5.730469 22.316406 6.125 22.476562 6.636719 22.527344 6.804688 22.683594 6.917969 22.855469 6.917969 22.859375 6.917969 22.859375 6.917969 22.859375 6.917969 23.035156 6.917969 23.191406 6.800781 23.242188 6.632812L23.9375 4.253906C24.050781 3.875 24.007812 3.476562 23.820312 3.128906zM23.171875 4.03125L22.738281 5.511719C22.445312 5.183594 22.0625 4.9375 21.625 4.808594 21.011719 4.628906 20.363281 4.699219 19.804688 5.003906 19.242188 5.3125 18.832031 5.820312 18.652344 6.433594 18.472656 7.046875 18.542969 7.695312 18.847656 8.257812 19.15625 8.820312 19.660156 9.226562 20.277344 9.40625 20.710938 9.535156 21.164062 9.535156 21.589844 9.417969L21.058594 11.21875C21.007812 11.390625 20.894531 11.535156 20.734375 11.621094 20.578125 11.707031 20.394531 11.730469 20.21875 11.675781L17.523438 10.886719C17.351562 10.835938 17.171875 10.902344 17.074219 11.050781 16.980469 11.199219 16.992188 11.390625 17.105469 11.527344 17.449219 11.9375 17.566406 12.488281 17.414062 13.003906 17.292969 13.414062 17.023438 13.75 16.648438 13.953125 16.273438 14.160156 15.84375 14.203125 15.433594 14.085938 14.589844 13.835938 14.105469 12.949219 14.351562 12.105469 14.503906 11.589844 14.898438 11.1875 15.414062 11.03125 15.582031 10.976562 15.695312 10.820312 15.695312 10.644531 15.695312 10.46875 15.578125 10.3125 15.40625 10.261719L13.03125 9.566406C12.855469 9.515625 12.714844 9.398438 12.628906 9.242188 12.539062 9.082031 12.519531 8.898438 12.570312 8.726562L13.363281 6.027344C13.414062 5.859375 13.347656 5.675781 13.199219 5.582031 13.132812 5.539062 13.054688 5.515625 12.980469 5.515625 12.886719 5.515625 12.796875 5.546875 12.722656 5.609375 12.3125 5.957031 11.757812 6.074219 11.246094 5.921875 10.835938 5.800781 10.496094 5.527344 10.292969 5.152344 10.089844 4.78125 10.042969 4.347656 10.164062 3.941406 10.410156 3.097656 11.300781 2.609375 12.144531 2.859375 12.65625 3.007812 13.058594 3.40625 13.21875 3.917969 13.269531 4.085938 13.425781 4.199219 13.601562 4.199219 13.601562 4.199219 13.601562 4.199219 13.605469 4.199219 13.78125 4.199219 13.933594 4.082031 13.984375 3.914062L14.683594 1.535156C14.734375 1.363281 14.847656 1.21875 15.007812 1.132812 15.167969 1.046875 15.351562 1.027344 15.523438 1.078125L22.710938 3.1875C22.886719 3.238281 23.027344 3.355469 23.117188 3.511719 23.203125 3.671875 23.222656 3.855469 23.171875 4.03125zM23.171875 4.03125"/>
</svg>

<svg xmlns="http://www.w3.org/2000/svg" width="32" height="32" viewBox="0 0 24 24">
    <path d="M10.703 11.352H8.7A2.803 2.803 0 0 0 6.4 6.95a2.802 2.802 0 0 0-2.297 4.402H1.695c-.933 0-1.695.761-1.695 1.695v3.379a.4.4 0 0 0 .734.219 1.994 1.994 0 0 1 1.664-.895c1.106 0 2 .898 2 2 0 1.102-.894 2-2 2a1.994 1.994 0 0 1-1.664-.895.393.393 0 0 0-.449-.16.398.398 0 0 0-.285.383v2.977c0 .933.762 1.695 1.695 1.695h9.008c.938 0 1.695-.762 1.695-1.695v-2.52a.4.4 0 0 0-.668-.297 1.98 1.98 0 0 1-1.332.512c-1.101 0-2-.898-2-2 0-1.102.899-2 2-2 .493 0 .965.184 1.332.512.122.105.29.133.434.07a.4.4 0 0 0 .234-.367v-2.918c0-.934-.757-1.695-1.695-1.695zm.899 3.87a2.825 2.825 0 0 0-1.204-.273 2.802 2.802 0 0 0-2.796 2.801c0 1.543 1.253 2.8 2.796 2.8.422 0 .829-.093 1.204-.273v1.778a.898.898 0 0 1-.899.894H1.695a.897.897 0 0 1-.894-.894v-2.008a2.78 2.78 0 0 0 1.597.504c1.547 0 2.801-1.258 2.801-2.801 0-1.543-1.254-2.8-2.8-2.8a2.78 2.78 0 0 0-1.598.503v-2.406c0-.496.402-.895.894-.895h3.38a.402.402 0 0 0 .222-.734 1.995 1.995 0 0 1-.899-1.668c0-1.102.899-2 2-2a2.001 2.001 0 0 1 1.106 3.668.402.402 0 0 0 .223.734h2.976c.496 0 .899.399.899.895zm0 0M23.82 3.129a1.477 1.477 0 0 0-.883-.707L15.75.309a1.483 1.483 0 0 0-1.836 1.004l-.434 1.48a2.407 2.407 0 0 0-1.109-.703 2.405 2.405 0 0 0-2.976 1.625c-.18.613-.11 1.262.199 1.824.304.563.812.969 1.426 1.149.437.128.89.128 1.312.011L11.805 8.5c-.11.379-.07.777.12 1.125.188.344.5.598.88.707l1.48.438a2.4 2.4 0 0 0 1.602 4.183c.394 0 .789-.101 1.144-.297a2.38 2.38 0 0 0 1.16-2.738l1.801.527a1.484 1.484 0 0 0 1.836-1l.793-2.695a.406.406 0 0 0-.168-.45.4.4 0 0 0-.476.028c-.41.348-.961.465-1.477.313a1.6 1.6 0 0 1-1.082-1.98 1.6 1.6 0 0 1 1.984-1.083c.512.152.914.547 1.075 1.059.05.168.207.281.378.281h.004a.402.402 0 0 0 .383-.285l.695-2.38c.114-.378.07-.776-.117-1.124zm-.648.902l-.434 1.48a2.399 2.399 0 0 0-2.933-.507 2.395 2.395 0 0 0-.957 3.254c.308.562.812.969 1.43 1.148a2.38 2.38 0 0 0 1.312.012l-.531 1.8a.666.666 0 0 1-.325.403.658.658 0 0 1-.515.055l-2.696-.79a.398.398 0 0 0-.418.641c.344.41.461.961.31 1.477-.122.41-.392.746-.767.95-.375.206-.804.25-1.214.132a1.6 1.6 0 0 1-1.082-1.98 1.585 1.585 0 0 1 1.062-1.075.4.4 0 1 0-.008-.77l-2.375-.695a.669.669 0 0 1-.402-.324.663.663 0 0 1-.059-.515l.793-2.7a.393.393 0 0 0-.164-.445.396.396 0 0 0-.477.027c-.41.348-.964.465-1.476.313a1.588 1.588 0 0 1-.953-.77 1.596 1.596 0 1 1 2.926-1.234c.05.168.207.281.383.281h.003a.397.397 0 0 0 .38-.285l.699-2.379a.679.679 0 0 1 .84-.457l7.187 2.11c.176.05.316.167.406.324.086.16.106.343.055.52zm0 0"/>
</svg>
